report_00007_2020-12-11T15:55:29.892Z/speed-index/comparison/sorted/2_vs_3.svg

<svg width="640" height="500" xmlns="http://www.w3.org/2000/svg" xmlns:xlink="http://www.w3.org/1999/xlink"><path fill="#fff" d="M0 0h640v500H0z"/><defs><path id="d" stroke-width=".222" stroke="currentColor" d="M-1-1h2v2h-2z"/><path id="b" stroke-width=".222" stroke="currentColor" d="M0-1.33l-1.33 2h2.66z"/><path id="f" stroke-width=".222" stroke="currentColor" d="M0 1.33L1.265.411.782-1.067l-1.564-.009-.483 1.487z"/><use xlink:href="#b" id="c" stroke="currentColor" transform="rotate(180)"/><use xlink:href="#d" id="e" stroke="currentColor" transform="rotate(45)"/><circle id="a" stroke-width=".222" stroke="currentColor" cx="0" cy="0" r="1"/></defs><g fill="none" color="#000" stroke="currentColor"><path stroke="#000" d="M62.2 426.8h9m543.8 0h-9"/><text transform="translate(53.9 430.7)" stroke="none" fill="#000" font-family="Arial" font-size="12" text-anchor="end"><tspan>3800</tspan></text></g><g fill="none" color="#000" stroke="currentColor"><path stroke="#000" d="M62.2 384.5h9m543.8 0h-9"/><text transform="translate(53.9 388.4)" stroke="none" fill="#000" font-family="Arial" font-size="12" text-anchor="end"><tspan>4000</tspan></text></g><g fill="none" color="#000" stroke="currentColor"><path stroke="#000" d="M62.2 342.3h9m543.8 0h-9"/><text transform="translate(53.9 346.2)" stroke="none" fill="#000" font-family="Arial" font-size="12" text-anchor="end"><tspan>4200</tspan></text></g><g fill="none" color="#000" stroke="currentColor"><path stroke="#000" d="M62.2 300.1h9m543.8 0h-9"/><text transform="translate(53.9 304)" stroke="none" fill="#000" font-family="Arial" font-size="12" text-anchor="end"><tspan>4400</tspan></text></g><g fill="none" color="#000" stroke="currentColor"><path stroke="#000" d="M62.2 257.8h9m543.8 0h-9"/><text transform="translate(53.9 261.7)" stroke="none" fill="#000" font-family="Arial" font-size="12" text-anchor="end"><tspan>4600</tspan></text></g><g fill="none" color="#000" stroke="currentColor"><path stroke="#000" d="M62.2 215.6h9m543.8 0h-9"/><text transform="translate(53.9 219.5)" stroke="none" fill="#000" font-family="Arial" font-size="12" text-anchor="end"><tspan>4800</tspan></text></g><g fill="none" color="#000" stroke="currentColor"><path stroke="#000" d="M62.2 173.3h9m543.8 0h-9"/><text transform="translate(53.9 177.2)" stroke="none" fill="#000" font-family="Arial" font-size="12" text-anchor="end"><tspan>5000</tspan></text></g><g fill="none" color="#000" stroke="currentColor"><path stroke="#000" d="M62.2 131.1h9m543.8 0h-9"/><text transform="translate(53.9 135)" stroke="none" fill="#000" font-family="Arial" font-size="12" text-anchor="end"><tspan>5200</tspan></text></g><g fill="none" color="#000" stroke="currentColor"><path stroke="#000" d="M62.2 88.9h9m543.8 0h-9"/><text transform="translate(53.9 92.8)" stroke="none" fill="#000" font-family="Arial" font-size="12" text-anchor="end"><tspan>5400</tspan></text></g><g fill="none" color="#000" stroke="currentColor"><path stroke="#000" d="M62.2 46.6h9m543.8 0h-9"/><text transform="translate(53.9 50.5)" stroke="none" fill="#000" font-family="Arial" font-size="12" text-anchor="end"><tspan>5600</tspan></text></g><g fill="none" color="#000" stroke="currentColor"><path stroke="#000" d="M62.2 428v-9m0-400.9v9"/><text transform="translate(62.2 449.9)" stroke="none" fill="#000" font-family="Arial" font-size="12" text-anchor="middle"><tspan>0</tspan></text></g><g fill="none" color="#000" stroke="currentColor"><path stroke="#000" d="M118 428v-9m0-400.9v9"/><text transform="translate(118 449.9)" stroke="none" fill="#000" font-family="Arial" font-size="12" text-anchor="middle"><tspan>10</tspan></text></g><g fill="none" color="#000" stroke="currentColor"><path stroke="#000" d="M173.9 428v-9m0-400.9v9"/><text transform="translate(173.9 449.9)" stroke="none" fill="#000" font-family="Arial" font-size="12" text-anchor="middle"><tspan>20</tspan></text></g><g fill="none" color="#000" stroke="currentColor"><path stroke="#000" d="M229.7 428v-9m0-400.9v9"/><text transform="translate(229.7 449.9)" stroke="none" fill="#000" font-family="Arial" font-size="12" text-anchor="middle"><tspan>30</tspan></text></g><g fill="none" color="#000" stroke="currentColor"><path stroke="#000" d="M285.6 428v-9m0-400.9v9"/><text transform="translate(285.6 449.9)" stroke="none" fill="#000" font-family="Arial" font-size="12" text-anchor="middle"><tspan>40</tspan></text></g><g fill="none" color="#000" stroke="currentColor"><path stroke="#000" d="M341.4 428v-9m0-400.9v9"/><text transform="translate(341.4 449.9)" stroke="none" fill="#000" font-family="Arial" font-size="12" text-anchor="middle"><tspan>50</tspan></text></g><g fill="none" color="#000" stroke="currentColor"><path stroke="#000" d="M397.2 428v-9m0-400.9v9"/><text transform="translate(397.2 449.9)" stroke="none" fill="#000" font-family="Arial" font-size="12" text-anchor="middle"><tspan>60</tspan></text></g><g fill="none" color="#000" stroke="currentColor"><path stroke="#000" d="M453.1 428v-9m0-400.9v9"/><text transform="translate(453.1 449.9)" stroke="none" fill="#000" font-family="Arial" font-size="12" text-anchor="middle"><tspan>70</tspan></text></g><g fill="none" color="#000" stroke="currentColor"><path stroke="#000" d="M508.9 428v-9m0-400.9v9"/><text transform="translate(508.9 449.9)" stroke="none" fill="#000" font-family="Arial" font-size="12" text-anchor="middle"><tspan>80</tspan></text></g><g fill="none" color="#000" stroke="currentColor"><path stroke="#000" d="M564.7 428v-9m0-400.9v9"/><text transform="translate(564.7 449.9)" stroke="none" fill="#000" font-family="Arial" font-size="12" text-anchor="middle"><tspan>90</tspan></text></g><path stroke="#000" d="M62.2 18.1V428H615V18.1H62.2z" fill="none" color="#000"/><text transform="translate(279.8 467.9)" stroke="none" fill="#000" font-family="Arial" font-size="12" text-anchor="end" color="#000"><tspan>pages+cached</tspan></text><path stroke="#9400D3" d="M288.1 464h42.2M62.2 345.4l5.6-.2 5.6-.6 5.6-.1 5.5-1.2h5.6l5.6-.1 5.6-.1 5.6-.5 5.6-.2 5.5-.4 5.6-.2 5.6-.2 5.6-1 5.6-.3 5.6-.1h5.5l5.6-.4 5.6-.3 5.6-.2 5.6-.5 5.6-.1 5.5-.4 5.6-.1 5.6-.3 5.6-.1 5.6-.2 5.6-.5 5.5-.3 5.6-.4 5.6-.1 5.6-.2 5.6-.2 5.6-.1 5.6-.1 5.5-.1 5.6-.3 5.6-.1 5.6-1.3 5.6-.1 5.6-1 5.5-.3 5.6-.8h11.2l5.6-.7 5.6-.6 5.5-.2 5.6-.1 5.6-.1 5.6-.1 5.6-3.6 5.6-.7 5.5-1.5 5.6-.5 5.6-.5 5.6-1.2 5.6-.1 5.6-.3 5.5-1 5.6-.1 5.6-.3 5.6-1.2 5.6-.2 5.6-1.2 5.5-1.6 5.6-.2 5.6-.3 5.6-1.5 5.6-2.3 5.6-9 5.6-1.4 5.5-90 5.6-.3 5.6-1.7 5.6-.3 5.6-2.6 5.6-.5 5.5-.3 5.6-.9 5.6-.2 5.6-.2 5.6-4.8 5.6-.4 5.5-.6 5.6-.2 5.6-.8 5.6-1.5 5.6-1.5 5.6-.3 5.5-1 5.6-.6 5.6-1.8 5.6-4.4 5.6-.1 5.6-1 5.5-1.2 5.6-98.3 5.6-.4L615 26" fill="none" color="#000"/><text transform="translate(279.8 485.9)" stroke="none" fill="#000" font-family="Arial" font-size="12" text-anchor="end" color="#000"><tspan>pages+cached+nointeractive</tspan></text><path stroke="#009E73" d="M288.1 482h42.2M62.2 420.1l5.6-22.7 5.6-54.8 5.6-.6 5.5-.3 5.6-.2 5.6-.2 5.6-1.2 5.6-.3 5.6-.2 5.5-.8 5.6-.5 5.6-.9 5.6-.3 5.6-.6 5.6-1.1 5.5-.2 5.6-1.3 5.6-.3 5.6-.1 5.6-.3 5.6-1.3 5.5-.6 5.6-1.2 5.6-1.2 5.6-.4 5.6-3.3 5.6-.1h11.1l5.6-.1 5.6-.7 5.6-.3 5.6-.1 5.6-.3 5.5-.5h5.6l5.6-.3h5.6l5.6-.3 5.6-.1 5.5-.1 5.6-.2 5.6-.6 5.6-.1 5.6-.1 5.6-.1h5.5l5.6-.2h5.6l5.6-.2 5.6-.2 5.6-.3 5.5-.6h5.6l5.6-.4 5.6-.4 5.6-.4h5.6l5.5-.1 5.6-.2 5.6-.2 5.6-.1 5.6-.9 5.6-.2h11.1l5.6-.6 5.6-.9 5.6-.3 5.6-.5 5.6-1.3 5.5-1.5 5.6-2.3 5.6-8.1 5.6-74.8 5.6-12.3 5.6-2.8 5.5-.4 5.6-.5 5.6-1.1 5.6-1.2 5.6-.3 5.6-2.6 5.5-1.4 5.6-.8 5.6-.9 5.6-5.7 5.6-.2 5.6-.8 5.5-1 5.6-.5 5.6-.8 5.6-2.3 5.6-1.9 5.6-.4 5.5-.1 5.6-.1 5.6-1.2 5.6-2.7" fill="none" color="#000"/><text transform="translate(554.4 467.9)" stroke="none" fill="#000" font-family="Arial" font-size="12" text-anchor="end" color="#000"><tspan>score p10=3387</tspan></text><path stroke="#56B4E9" d="M562.7 464h42.2" fill="none" color="#000"/><g><text transform="translate(554.4 485.9)" stroke="none" fill="#000" font-family="Arial" font-size="12" text-anchor="end" color="#000"><tspan>score median=5800</tspan></text><path stroke="#E69F00" d="M562.7 482h42.2" fill="none" color="#000"/></g><g fill="none" color="#000" stroke="currentColor"><path stroke="#000" d="M62.2 18.1V428H615V18.1H62.2z"/></g></svg>

<?xml version="1.0" encoding="utf-8"  standalone="no"?>
<svg 
 width="640" height="500"
 viewBox="0 0 640 500"
 xmlns="http://www.w3.org/2000/svg"
 xmlns:xlink="http://www.w3.org/1999/xlink"
>

<title>Gnuplot</title>
<desc>Produced by GNUPLOT 5.4 patchlevel 0 </desc>

<g id="gnuplot_canvas">

<rect x="0" y="0" width="640" height="500" fill="#ffffff"/>
<defs>

	<circle id='gpDot' r='0.5' stroke-width='0.5' stroke='currentColor'/>
	<path id='gpPt0' stroke-width='0.222' stroke='currentColor' d='M-1,0 h2 M0,-1 v2'/>
	<path id='gpPt1' stroke-width='0.222' stroke='currentColor' d='M-1,-1 L1,1 M1,-1 L-1,1'/>
	<path id='gpPt2' stroke-width='0.222' stroke='currentColor' d='M-1,0 L1,0 M0,-1 L0,1 M-1,-1 L1,1 M-1,1 L1,-1'/>
	<rect id='gpPt3' stroke-width='0.222' stroke='currentColor' x='-1' y='-1' width='2' height='2'/>
	<rect id='gpPt4' stroke-width='0.222' stroke='currentColor' fill='currentColor' x='-1' y='-1' width='2' height='2'/>
	<circle id='gpPt5' stroke-width='0.222' stroke='currentColor' cx='0' cy='0' r='1'/>
	<use xlink:href='#gpPt5' id='gpPt6' fill='currentColor' stroke='none'/>
	<path id='gpPt7' stroke-width='0.222' stroke='currentColor' d='M0,-1.33 L-1.33,0.67 L1.33,0.67 z'/>
	<use xlink:href='#gpPt7' id='gpPt8' fill='currentColor' stroke='none'/>
	<use xlink:href='#gpPt7' id='gpPt9' stroke='currentColor' transform='rotate(180)'/>
	<use xlink:href='#gpPt9' id='gpPt10' fill='currentColor' stroke='none'/>
	<use xlink:href='#gpPt3' id='gpPt11' stroke='currentColor' transform='rotate(45)'/>
	<use xlink:href='#gpPt11' id='gpPt12' fill='currentColor' stroke='none'/>
	<path id='gpPt13' stroke-width='0.222' stroke='currentColor' d='M0,1.330 L1.265,0.411 L0.782,-1.067 L-0.782,-1.076 L-1.265,0.411 z'/>
	<use xlink:href='#gpPt13' id='gpPt14' fill='currentColor' stroke='none'/>
	<filter id='textbox' filterUnits='objectBoundingBox' x='0' y='0' height='1' width='1'>
	  <feFlood flood-color='#FFFFFF' flood-opacity='1' result='bgnd'/>
	  <feComposite in='SourceGraphic' in2='bgnd' operator='atop'/>
	</filter>
	<filter id='greybox' filterUnits='objectBoundingBox' x='0' y='0' height='1' width='1'>
	  <feFlood flood-color='lightgrey' flood-opacity='1' result='grey'/>
	  <feComposite in='SourceGraphic' in2='grey' operator='atop'/>
	</filter>
</defs>
<g fill="none" color="#FFFFFF" stroke="black" stroke-width="1.00" stroke-linecap="butt" stroke-linejoin="miter">
</g>
<g fill="none" color="black" stroke="currentColor" stroke-width="1.00" stroke-linecap="butt" stroke-linejoin="miter">
	<path stroke='black'  d='M62.2,426.8 L71.2,426.8 M615.0,426.8 L606.0,426.8  '/>	<g transform="translate(53.9,430.7)" stroke="none" fill="black" font-family="Arial" font-size="12.00"  text-anchor="end">
		<text><tspan font-family="Arial" > 3800</tspan></text>
	</g>
</g>
<g fill="none" color="black" stroke="currentColor" stroke-width="1.00" stroke-linecap="butt" stroke-linejoin="miter">
	<path stroke='black'  d='M62.2,384.5 L71.2,384.5 M615.0,384.5 L606.0,384.5  '/>	<g transform="translate(53.9,388.4)" stroke="none" fill="black" font-family="Arial" font-size="12.00"  text-anchor="end">
		<text><tspan font-family="Arial" > 4000</tspan></text>
	</g>
</g>
<g fill="none" color="black" stroke="currentColor" stroke-width="1.00" stroke-linecap="butt" stroke-linejoin="miter">
	<path stroke='black'  d='M62.2,342.3 L71.2,342.3 M615.0,342.3 L606.0,342.3  '/>	<g transform="translate(53.9,346.2)" stroke="none" fill="black" font-family="Arial" font-size="12.00"  text-anchor="end">
		<text><tspan font-family="Arial" > 4200</tspan></text>
	</g>
</g>
<g fill="none" color="black" stroke="currentColor" stroke-width="1.00" stroke-linecap="butt" stroke-linejoin="miter">
	<path stroke='black'  d='M62.2,300.1 L71.2,300.1 M615.0,300.1 L606.0,300.1  '/>	<g transform="translate(53.9,304.0)" stroke="none" fill="black" font-family="Arial" font-size="12.00"  text-anchor="end">
		<text><tspan font-family="Arial" > 4400</tspan></text>
	</g>
</g>
<g fill="none" color="black" stroke="currentColor" stroke-width="1.00" stroke-linecap="butt" stroke-linejoin="miter">
	<path stroke='black'  d='M62.2,257.8 L71.2,257.8 M615.0,257.8 L606.0,257.8  '/>	<g transform="translate(53.9,261.7)" stroke="none" fill="black" font-family="Arial" font-size="12.00"  text-anchor="end">
		<text><tspan font-family="Arial" > 4600</tspan></text>
	</g>
</g>
<g fill="none" color="black" stroke="currentColor" stroke-width="1.00" stroke-linecap="butt" stroke-linejoin="miter">
	<path stroke='black'  d='M62.2,215.6 L71.2,215.6 M615.0,215.6 L606.0,215.6  '/>	<g transform="translate(53.9,219.5)" stroke="none" fill="black" font-family="Arial" font-size="12.00"  text-anchor="end">
		<text><tspan font-family="Arial" > 4800</tspan></text>
	</g>
</g>
<g fill="none" color="black" stroke="currentColor" stroke-width="1.00" stroke-linecap="butt" stroke-linejoin="miter">
	<path stroke='black'  d='M62.2,173.3 L71.2,173.3 M615.0,173.3 L606.0,173.3  '/>	<g transform="translate(53.9,177.2)" stroke="none" fill="black" font-family="Arial" font-size="12.00"  text-anchor="end">
		<text><tspan font-family="Arial" > 5000</tspan></text>
	</g>
</g>
<g fill="none" color="black" stroke="currentColor" stroke-width="1.00" stroke-linecap="butt" stroke-linejoin="miter">
	<path stroke='black'  d='M62.2,131.1 L71.2,131.1 M615.0,131.1 L606.0,131.1  '/>	<g transform="translate(53.9,135.0)" stroke="none" fill="black" font-family="Arial" font-size="12.00"  text-anchor="end">
		<text><tspan font-family="Arial" > 5200</tspan></text>
	</g>
</g>
<g fill="none" color="black" stroke="currentColor" stroke-width="1.00" stroke-linecap="butt" stroke-linejoin="miter">
	<path stroke='black'  d='M62.2,88.9 L71.2,88.9 M615.0,88.9 L606.0,88.9  '/>	<g transform="translate(53.9,92.8)" stroke="none" fill="black" font-family="Arial" font-size="12.00"  text-anchor="end">
		<text><tspan font-family="Arial" > 5400</tspan></text>
	</g>
</g>
<g fill="none" color="black" stroke="currentColor" stroke-width="1.00" stroke-linecap="butt" stroke-linejoin="miter">
	<path stroke='black'  d='M62.2,46.6 L71.2,46.6 M615.0,46.6 L606.0,46.6  '/>	<g transform="translate(53.9,50.5)" stroke="none" fill="black" font-family="Arial" font-size="12.00"  text-anchor="end">
		<text><tspan font-family="Arial" > 5600</tspan></text>
	</g>
</g>
<g fill="none" color="black" stroke="currentColor" stroke-width="1.00" stroke-linecap="butt" stroke-linejoin="miter">
	<path stroke='black'  d='M62.2,428.0 L62.2,419.0 M62.2,18.1 L62.2,27.1  '/>	<g transform="translate(62.2,449.9)" stroke="none" fill="black" font-family="Arial" font-size="12.00"  text-anchor="middle">
		<text><tspan font-family="Arial" > 0</tspan></text>
	</g>
</g>
<g fill="none" color="black" stroke="currentColor" stroke-width="1.00" stroke-linecap="butt" stroke-linejoin="miter">
	<path stroke='black'  d='M118.0,428.0 L118.0,419.0 M118.0,18.1 L118.0,27.1  '/>	<g transform="translate(118.0,449.9)" stroke="none" fill="black" font-family="Arial" font-size="12.00"  text-anchor="middle">
		<text><tspan font-family="Arial" > 10</tspan></text>
	</g>
</g>
<g fill="none" color="black" stroke="currentColor" stroke-width="1.00" stroke-linecap="butt" stroke-linejoin="miter">
	<path stroke='black'  d='M173.9,428.0 L173.9,419.0 M173.9,18.1 L173.9,27.1  '/>	<g transform="translate(173.9,449.9)" stroke="none" fill="black" font-family="Arial" font-size="12.00"  text-anchor="middle">
		<text><tspan font-family="Arial" > 20</tspan></text>
	</g>
</g>
<g fill="none" color="black" stroke="currentColor" stroke-width="1.00" stroke-linecap="butt" stroke-linejoin="miter">
	<path stroke='black'  d='M229.7,428.0 L229.7,419.0 M229.7,18.1 L229.7,27.1  '/>	<g transform="translate(229.7,449.9)" stroke="none" fill="black" font-family="Arial" font-size="12.00"  text-anchor="middle">
		<text><tspan font-family="Arial" > 30</tspan></text>
	</g>
</g>
<g fill="none" color="black" stroke="currentColor" stroke-width="1.00" stroke-linecap="butt" stroke-linejoin="miter">
	<path stroke='black'  d='M285.6,428.0 L285.6,419.0 M285.6,18.1 L285.6,27.1  '/>	<g transform="translate(285.6,449.9)" stroke="none" fill="black" font-family="Arial" font-size="12.00"  text-anchor="middle">
		<text><tspan font-family="Arial" > 40</tspan></text>
	</g>
</g>
<g fill="none" color="black" stroke="currentColor" stroke-width="1.00" stroke-linecap="butt" stroke-linejoin="miter">
	<path stroke='black'  d='M341.4,428.0 L341.4,419.0 M341.4,18.1 L341.4,27.1  '/>	<g transform="translate(341.4,449.9)" stroke="none" fill="black" font-family="Arial" font-size="12.00"  text-anchor="middle">
		<text><tspan font-family="Arial" > 50</tspan></text>
	</g>
</g>
<g fill="none" color="black" stroke="currentColor" stroke-width="1.00" stroke-linecap="butt" stroke-linejoin="miter">
	<path stroke='black'  d='M397.2,428.0 L397.2,419.0 M397.2,18.1 L397.2,27.1  '/>	<g transform="translate(397.2,449.9)" stroke="none" fill="black" font-family="Arial" font-size="12.00"  text-anchor="middle">
		<text><tspan font-family="Arial" > 60</tspan></text>
	</g>
</g>
<g fill="none" color="black" stroke="currentColor" stroke-width="1.00" stroke-linecap="butt" stroke-linejoin="miter">
	<path stroke='black'  d='M453.1,428.0 L453.1,419.0 M453.1,18.1 L453.1,27.1  '/>	<g transform="translate(453.1,449.9)" stroke="none" fill="black" font-family="Arial" font-size="12.00"  text-anchor="middle">
		<text><tspan font-family="Arial" > 70</tspan></text>
	</g>
</g>
<g fill="none" color="black" stroke="currentColor" stroke-width="1.00" stroke-linecap="butt" stroke-linejoin="miter">
	<path stroke='black'  d='M508.9,428.0 L508.9,419.0 M508.9,18.1 L508.9,27.1  '/>	<g transform="translate(508.9,449.9)" stroke="none" fill="black" font-family="Arial" font-size="12.00"  text-anchor="middle">
		<text><tspan font-family="Arial" > 80</tspan></text>
	</g>
</g>
<g fill="none" color="black" stroke="currentColor" stroke-width="1.00" stroke-linecap="butt" stroke-linejoin="miter">
	<path stroke='black'  d='M564.7,428.0 L564.7,419.0 M564.7,18.1 L564.7,27.1  '/>	<g transform="translate(564.7,449.9)" stroke="none" fill="black" font-family="Arial" font-size="12.00"  text-anchor="middle">
		<text><tspan font-family="Arial" > 90</tspan></text>
	</g>
</g>
<g fill="none" color="black" stroke="currentColor" stroke-width="1.00" stroke-linecap="butt" stroke-linejoin="miter">
</g>
<g fill="none" color="black" stroke="currentColor" stroke-width="1.00" stroke-linecap="butt" stroke-linejoin="miter">
	<path stroke='black'  d='M62.2,18.1 L62.2,428.0 L615.0,428.0 L615.0,18.1 L62.2,18.1 Z  '/></g>
<g fill="none" color="black" stroke="currentColor" stroke-width="1.00" stroke-linecap="butt" stroke-linejoin="miter">
</g>
	<g id="gnuplot_plot_1" ><title>pages+cached</title>
<g fill="none" color="black" stroke="currentColor" stroke-width="1.00" stroke-linecap="butt" stroke-linejoin="miter">
	<g transform="translate(279.8,467.9)" stroke="none" fill="black" font-family="Arial" font-size="12.00"  text-anchor="end">
		<text><tspan font-family="Arial" >pages+cached</tspan></text>
	</g>
</g>
<g fill="none" color="black" stroke="currentColor" stroke-width="1.00" stroke-linecap="butt" stroke-linejoin="miter">
	<path stroke='rgb(148,   0, 211)'  d='M288.1,464.0 L330.3,464.0 M62.2,345.4 L67.8,345.2 L73.4,344.6 L79.0,344.5 L84.5,343.3 L90.1,343.3
		L95.7,343.2 L101.3,343.1 L106.9,342.6 L112.5,342.4 L118.0,342.0 L123.6,341.8 L129.2,341.6 L134.8,340.6
		L140.4,340.3 L146.0,340.2 L151.5,340.2 L157.1,339.8 L162.7,339.5 L168.3,339.3 L173.9,338.8 L179.5,338.7
		L185.0,338.3 L190.6,338.2 L196.2,337.9 L201.8,337.8 L207.4,337.6 L213.0,337.1 L218.5,336.8 L224.1,336.4
		L229.7,336.3 L235.3,336.1 L240.9,335.9 L246.5,335.8 L252.1,335.7 L257.6,335.6 L263.2,335.3 L268.8,335.2
		L274.4,333.9 L280.0,333.8 L285.6,332.8 L291.1,332.5 L296.7,331.7 L302.3,331.7 L307.9,331.7 L313.5,331.0
		L319.1,330.4 L324.6,330.2 L330.2,330.1 L335.8,330.0 L341.4,329.9 L347.0,326.3 L352.6,325.6 L358.1,324.1
		L363.7,323.6 L369.3,323.1 L374.9,321.9 L380.5,321.8 L386.1,321.5 L391.6,320.5 L397.2,320.4 L402.8,320.1
		L408.4,318.9 L414.0,318.7 L419.6,317.5 L425.1,315.9 L430.7,315.7 L436.3,315.4 L441.9,313.9 L447.5,311.6
		L453.1,302.6 L458.7,301.2 L464.2,211.2 L469.8,210.9 L475.4,209.2 L481.0,208.9 L486.6,206.3 L492.2,205.8
		L497.7,205.5 L503.3,204.6 L508.9,204.4 L514.5,204.2 L520.1,199.4 L525.7,199.0 L531.2,198.4 L536.8,198.2
		L542.4,197.4 L548.0,195.9 L553.6,194.4 L559.2,194.1 L564.7,193.1 L570.3,192.5 L575.9,190.7 L581.5,186.3
		L587.1,186.2 L592.7,185.2 L598.2,184.0 L603.8,85.7 L609.4,85.3 L615.0,26.0  '/></g>
	</g>
	<g id="gnuplot_plot_2" ><title>pages+cached+nointeractive</title>
<g fill="none" color="black" stroke="currentColor" stroke-width="1.00" stroke-linecap="butt" stroke-linejoin="miter">
	<g transform="translate(279.8,485.9)" stroke="none" fill="black" font-family="Arial" font-size="12.00"  text-anchor="end">
		<text><tspan font-family="Arial" >pages+cached+nointeractive</tspan></text>
	</g>
</g>
<g fill="none" color="black" stroke="currentColor" stroke-width="1.00" stroke-linecap="butt" stroke-linejoin="miter">
	<path stroke='rgb(  0, 158, 115)'  d='M288.1,482.0 L330.3,482.0 M62.2,420.1 L67.8,397.4 L73.4,342.6 L79.0,342.0 L84.5,341.7 L90.1,341.5
		L95.7,341.3 L101.3,340.1 L106.9,339.8 L112.5,339.6 L118.0,338.8 L123.6,338.3 L129.2,337.4 L134.8,337.1
		L140.4,336.5 L146.0,335.4 L151.5,335.2 L157.1,333.9 L162.7,333.6 L168.3,333.5 L173.9,333.2 L179.5,331.9
		L185.0,331.3 L190.6,330.1 L196.2,328.9 L201.8,328.5 L207.4,325.2 L213.0,325.1 L218.5,325.1 L224.1,325.1
		L229.7,325.0 L235.3,324.3 L240.9,324.0 L246.5,323.9 L252.1,323.6 L257.6,323.1 L263.2,323.1 L268.8,322.8
		L274.4,322.8 L280.0,322.5 L285.6,322.4 L291.1,322.3 L296.7,322.1 L302.3,321.5 L307.9,321.4 L313.5,321.3
		L319.1,321.2 L324.6,321.2 L330.2,321.0 L335.8,321.0 L341.4,320.8 L347.0,320.6 L352.6,320.3 L358.1,319.7
		L363.7,319.7 L369.3,319.3 L374.9,318.9 L380.5,318.5 L386.1,318.5 L391.6,318.4 L397.2,318.2 L402.8,318.0
		L408.4,317.9 L414.0,317.0 L419.6,316.8 L425.1,316.8 L430.7,316.8 L436.3,316.2 L441.9,315.3 L447.5,315.0
		L453.1,314.5 L458.7,313.2 L464.2,311.7 L469.8,309.4 L475.4,301.3 L481.0,226.5 L486.6,214.2 L492.2,211.4
		L497.7,211.0 L503.3,210.5 L508.9,209.4 L514.5,208.2 L520.1,207.9 L525.7,205.3 L531.2,203.9 L536.8,203.1
		L542.4,202.2 L548.0,196.5 L553.6,196.3 L559.2,195.5 L564.7,194.5 L570.3,194.0 L575.9,193.2 L581.5,190.9
		L587.1,189.0 L592.7,188.6 L598.2,188.5 L603.8,188.4 L609.4,187.2 L615.0,184.5  '/></g>
	</g>
	<g id="gnuplot_plot_3" ><title>score p10=3387</title>
<g fill="none" color="black" stroke="currentColor" stroke-width="1.00" stroke-linecap="butt" stroke-linejoin="miter">
	<g transform="translate(554.4,467.9)" stroke="none" fill="black" font-family="Arial" font-size="12.00"  text-anchor="end">
		<text><tspan font-family="Arial" >score p10=3387</tspan></text>
	</g>
</g>
<g fill="none" color="black" stroke="currentColor" stroke-width="1.00" stroke-linecap="butt" stroke-linejoin="miter">
	<path stroke='rgb( 86, 180, 233)'  d='M562.7,464.0 L604.9,464.0  '/></g>
	</g>
	<g id="gnuplot_plot_4" ><title>score median=5800</title>
<g fill="none" color="black" stroke="currentColor" stroke-width="1.00" stroke-linecap="butt" stroke-linejoin="miter">
	<g transform="translate(554.4,485.9)" stroke="none" fill="black" font-family="Arial" font-size="12.00"  text-anchor="end">
		<text><tspan font-family="Arial" >score median=5800</tspan></text>
	</g>
</g>
<g fill="none" color="black" stroke="currentColor" stroke-width="1.00" stroke-linecap="butt" stroke-linejoin="miter">
	<path stroke='rgb(230, 159,   0)'  d='M562.7,482.0 L604.9,482.0  '/></g>
	</g>
<g fill="none" color="#FFFFFF" stroke="rgb(230, 159,   0)" stroke-width="2.00" stroke-linecap="butt" stroke-linejoin="miter">
</g>
<g fill="none" color="black" stroke="currentColor" stroke-width="2.00" stroke-linecap="butt" stroke-linejoin="miter">
</g>
<g fill="none" color="black" stroke="black" stroke-width="1.00" stroke-linecap="butt" stroke-linejoin="miter">
</g>
<g fill="none" color="black" stroke="currentColor" stroke-width="1.00" stroke-linecap="butt" stroke-linejoin="miter">
	<path stroke='black'  d='M62.2,18.1 L62.2,428.0 L615.0,428.0 L615.0,18.1 L62.2,18.1 Z  '/></g>
<g fill="none" color="black" stroke="currentColor" stroke-width="1.00" stroke-linecap="butt" stroke-linejoin="miter">
</g>
</g>
</svg>
